X: 22680
T: Lakes Of Sligo, The
R: polka
M: 2/4
K: Dmajor
|:A>B AB/c/|d>e dc|B>A Bc/d/|e>d ef|
A>B AB/c/|de f>e|dB Af|1 e2 d>B:|2 e2 d>2||
|:fa d>e|fa ag/f/|gb e>f|gb ba/g/|
fa ef|de f>e|dB Af|1 e2 d>e:|2 e2 d2||

